X:364
T:Reel 364
M:4/4
K:Dmix
L:1/8
dB|A>D (3DDD FGAG|EFGE F2FG|A>d (3dcd cdeg|fdec d2:|AB|cBcA cAGB|Addc defd|edce dBcB|AFGE EDD2|fedc dcAB|cfdB cAGg|afge dfed|cAGE D2|
